X:1
T:Title
%%score { ( 1 4 ) | ( 2 3 ) }
L:1/8
M:4/4
K:Bb
V:1 treble nm="Grand Piano"
V:4 treble 
V:2 bass 
V:3 bass 
V:1
 z4 z2 z[Q:1/4=100] B, | EDEF GFG_A | B2 B4 G2 | _AGAB cBcd | e6 [B,GB]2 | %5
 [Ge]3 [Ge] [_Ad]2 [FA]2 | [_Ac]3 [GB] [GB]2 [GB]2 | B2 _AG [EF]2 [B,DF]2 | [EG]_AGA B2 B2 | %9
 B2 _AG [EF]2 [_A,DF]2 |[M:3/4] [G,E]6 |[M:1/4] [DF]2 |[M:4/4] [DF]2 [DB]2 [DB]2 [DB]2 | %13
 [DB]A[Ec]B A2 F2 | F2 c2 cB[Fd]c | [DB]6 [Bd]2 | [Ac]2 [GB]2 [GB]2 [GB][EG] | %17
 [EG]2 [DF]2 [DF]2 [DB]2 | [CA]2 [FA]2 [=EG]2 [EG]2 | F6 A2 | A3 A [Ac]B[FA]B | [Ac]6 z [CAc] | %22
 [CAc]3 [CAc] [Ece][Bd][CAc][Bd] |[M:9/8] [Ae]8- [Ae] |[M:1/4] [Fd][Ec] | %25
[M:4/4] [DB]2 [DF]2 [DF]2 [EG]2 | [DF] [DB]3 z2 [B,FB]2 | [Ac]2 [Ac]2 [Af]3 [Fce] | %28
 [FBd]4 z2 [Bd]e | [df] [Bd]3 [Bd]2 [B,FB]2 | [B,GB] G3 z2 G2 | F2 B2 c2 c2 | d6 de | %33
 f2 d2 d2 [FB]2 | [GB]2 G2 G2 G2 | F2 B2 AceA | [DFB]6 z2 | [Ac]8 | [EGB]2 z2 z4 | [Ad]8 | %40
[M:7/8] [EGe]2 z z z z2 |] %41
V:2
 z4 z2 z B,, | E,D,E,F, G,F,G,_A, | B,2 B,4 G,2 | _A,G,A,B,[K:treble] CB,CD | E6[K:bass] E,2 | %5
 [E,B,]3 [E,B,] [F,B,]2 [D,B,]2 | [E,E]3 [E,E] [E,E]2 [E,E]2 | [_A,CG]2 FE[K:bass] B,2 B,,2 | %8
 z[K:treble] FEF G2 [G,B,E]2 | [F,CE]2 [F,CE]2 B,2 B,,2 |[M:3/4] E,6 |[M:1/4] B,,2 | %12
[M:4/4] B,,2 B,,2 B,,2 B,,2 | z C z D [F,C]2 [F,E]2 | [F,E]2 [F,E]2 ED z E | B,,6 B,,2 | %16
 E,2 E,2 E,2 E,G, | B,2 B,2 B,2 B,,2 | C,2 C,2 C,2 C,2 | F,6 [F,F]2 | %20
 [F,F]3 [F,F] z[K:treble] G z G | F,6 z F, | F,3 F, z D z D |[M:9/8] [F,C]8- [F,C] | %24
[M:1/4] [B,,B,]2 |[M:4/4] [B,,F,]2 [B,,B,]2 [B,,B,]2 [B,,B,]2 | [B,,B,] [B,,F,]3 z2 D,2 | %27
 F,2 F,2 [F,C]3 F, | B,4 z2[K:treble] z c | B, B,3 B,2[K:bass] D,2 | E, [E,B,E]3 z2 [E,B,E]2 | %31
 [F,B,D]2 [F,DF]2 [F,B,F]2 [F,A,F]2 | z4 z2 [B,F]2 | [B,DF]2 [B,F]2 [B,F]2[K:bass] [D,B,]2 | %34
 [E,B,]2 [E,B,E]2 [E,B,E]2 [E,B,E]2 | [F,B,D]2 [F,DF]2 [F,F]-[F,A,F]A,E | B,,6 z2 | %37
 E,-[E,-G,][E,-A,][E,-B,] [E,-C][E,-B,][E,-C][E,D] | E,2 z2 z4 | B,A,B,C .B,2 CD | %40
[M:7/8] E,2 z z z z2 |] %41
V:3
 x8 | x8 | x8 | x4[K:treble] x4 | x6[K:bass] x2 | x8 | x8 | z2 [_A,C]2[K:bass] z4 | %8
 E,2[K:treble] z2 z4 | x8 |[M:3/4] x6 |[M:1/4] x2 |[M:4/4] x8 | F,2 F,2 z4 | z4 F,2 F,2 | x8 | x8 | %17
 x8 | x8 | x8 | z4 F,2[K:treble] F,2 | x8 | z4 F,2 F,2 |[M:9/8] x9 |[M:1/4] x2 |[M:4/4] x8 | x8 | %27
 x8 | z4 z2[K:treble] B,2 | x6[K:bass] x2 | x8 | x8 | [B,F]6 z C | x6[K:bass] x2 | x8 | %35
 z4 .C2 [F,F]2 | x8 | .A,2 z2 z4 | x8 | z4 z B,3 |[M:7/8] x7 |] %41
V:4
 x8 | x8 | x8 | x8 | x8 | x8 | x8 | x8 | B,2 z2 z4 | x8 |[M:3/4] x6 |[M:1/4] x2 |[M:4/4] x8 | x8 | %14
 x8 | x8 | x8 | x8 | x8 | x8 | x8 | x8 | x8 |[M:9/8] x9 |[M:1/4] x2 |[M:4/4] x8 | x8 | x8 | x8 | %29
 x8 | x8 | x8 | x8 | x8 | x8 | x8 | x8 | x8 | x8 | z4 .D2 z2 |[M:7/8] x7 |] %41

